X:1
T:Title
%%score { ( 1 3 ) | ( 2 4 5 ) }
L:1/8
Q:1/4=100
M:6/8
K:F
V:1 treble nm="Grand Piano"
V:3 treble 
V:2 treble 
V:4 treble 
V:5 treble 
V:1
 A3 BAG | c3 d3 | c3 AG[=B,F] | [EG]3- [EG-][FG]G | A2 G c2 B | A2 G c3 | B2 A d2 c | B2 A d3 | %8
w: F.~L.~Robertshaw * * *||||||||
 G3 BAG | c3 d3 | [FA]3 [B,EA]2 [B,EG] | [A,F]6 |] %12
w: ||||
V:2
 [F,CF]3 [G,CE]2 [B,CE] | [A,CF]3 [_A,=B,F]3 | [A,CF]3 [G,=B,F]2[K:bass] D, | C,3- C,D,E, | %4
 [F,CF]2 [B,CE] [A,CF]2 [G,CE] | [F,CF]2 [B,CE] [A,CF]3 | [G,DG]2 [CD^F] [B,DG]2 [A,DF] | %7
 [G,DG]2 [CD^F] [B,DG]3 | z3 .E3 | F6[K:bass] | C3 C,2 C, | F,6 |] %12
V:3
 x6 | x6 | x6 | C6 | x6 | x6 | x6 | x6 | x6 | x6 | x6 | x6 |] %12
V:4
 x6 | x6 | x5[K:bass] x | x6 | x6 | x6 | x6 | x6 | [=B,DF]3 [CD][_B,C][B,CE] | %9
 [A,C]3[K:bass] z2 D | x6 | x6 |] %12
V:5
 x6 | x6 | x5[K:bass] x | x6 | x6 | x6 | x6 | x6 | x6 | z3[K:bass] B,3 | x6 | x6 |] %12

